X: 39
T:Dan O'Keefe's
N: page 13
N: hexatonic
R:Slide
H:Also played in Edor
M:12/8
K:Ador
"Am"A2e "D" e2d "G"BAB d2B|"Am"A2e e2d "G" B2G GAB|"Am"A2e e2d "D" BAB "G"d3|"D"BAB "G"d2e B2A "Am"A3:|
|:"Am"e2a a2b "Em" a2g "D"e2d|"Am"efg a2b "Em/D"a2g e2f|"G"g3 "C"gfe "G"dBA "Am"G2A|"D"BAB "G"d2e B2A "Am"A3:|
